X: 036
T: Mick O'Grady's (reel)
N: 130037
C: BB
R: reel
N: revised 1/9/07
Q: 1/8=380
M: 4/4
L: 1/8
K: D
A|"D"FEFG "Bm"AB B2|"G"GB B2 "D"AddA|"D"FEFG ABcA|"Bm"dBAF "G"G2 AG |
"D"FEFG "Bm"AB B2|"D"Adcd "Em"effg|"D"a2 fa "Bm"bafe|"D"dFFA "G"B3 :|
c|"D"defe defg|"D"a2 fa "Bm"bafe|"D"fddc "Bm"B2 fB|"D"ABde fddc |
"D"defe defg|"F#m"affe "Bm"dBBF|"G"GBBG "D"Adcd|"A7"AGEF "D"D3 :|
%%%%%%%%%%%%%%%%%%%%%%%%%%%%%%%%%%%%%%%%%%%
